!!!OTL: 598. Herzensweh.
!!!ARE: Europa, Mitteleuropa, Deutschland, Gotha
!!!SCT: E0598
!!!TXL: @@DE
!!!YEM: Copyright 1995, estate of Helmut Schaffrath.
**kern	**text
*ICvox	*
*M2/4	*
*k[b-e-]	*
*g:	*
!LO:TX:a:t=Langsam.	!
!LO:TX:a:t=Mel. 1817 aus Gotha ſo, wie die kleinen Noten melden. Wenig verändert von Silcher. 1836.	!
{8g	Mein
=1	=1
4b-	Herʒ-
4cc	-lein
=2	=2
4.dd}	thut
{16gL	mir
16aJ	.
=3	=3
4b-/	gar
4a	ʒu
=4	=4
4g	weh,
8r}	.
{8g	Das
=5	=5
4b-	macht,
4cc	weil
=6	=6
4.dd}	ich
{16gL	in
16aJ	.
=7	=7
4b-/	Trau-
4a	-ren
=8	=8
4g	ſteh.
8r}	.
{16aL	Mein
16b-J	.
=9	=9
8cc	Herʒ-
8cc	-lein
8cc	thut
16ccL	mir
16ddJ	.
=10	=10
4cc	weh
8r}	.
{16b-L	gleich
16ccJ	.
=11	=11
8dd	wenn
8dd	ich
8cc	dich
8b-	an-
=12	=12
4a	-ſeh;
8r}	.
{8dd	ach
=13	=13
8cc	ſoll
8b-	ich
8a	dich
8g	ver-
=14	=14
8.gL	-laſ-
16f#J	.
8g}	-ſen?
{8a	Das
=15	=15
8b-	thu
8cc	ich
8dd	nim-
8f#	-mer-
=16	=16
4g	-meh.
8r}	.
==	==
!!!AGN: Liebes - Lied
!!!ONB: ESAC (Essen Associative Code) Database: ERK1
!!!AMT: simple duple
!!!AIN: vox
!!!EED: Helmut Schaffrath
!!!EEV: 1.0
!!!GTL: Liebeslieder [Neuere (aus dem 18. bis 19. Jahrh.) - Liebeslust]
!!!URL-scan: https://rosdok.uni-rostock.de/mcrviewer/recordIdentifier/rosdok_ppn745177662/iview2/phys_0423.iview2?x=-128.77276441889308&y=273.19804694876075&scale=0.5870222003877485&rotation=0&layout=singlePageLayout
!!!ENC: Anna Maria Matuszewska
!!!EEV: 2024/11/12
*-	*-
